images/Services/fizio.svg

<svg width="99" height="99" viewBox="0 0 99 99"  xmlns="http://www.w3.org/2000/svg">
<path d="M96.6878 81.3962L83.7086 68.4169C82.1737 66.8801 80.0467 65.9999 77.8755 65.9999H72.1874V58.044C72.1874 52.213 68.8398 47.2058 63.454 44.974C58.0761 42.7444 52.1666 43.9146 48.0417 48.0417C44.5572 51.5281 40.1099 51.4556 37.125 50.215C34.132 48.9764 30.9375 45.8927 30.9375 40.956V33.0001H36.6256C38.7968 33.0001 40.9237 32.1199 42.4586 30.5831L55.4379 17.6019C56.9082 16.1316 57.7501 14.0973 57.7501 12.0206C57.7501 7.66593 54.2091 4.12513 49.8546 4.12513H49.1202C48.2658 1.72941 45.9979 0 43.3125 0H14.4376C11.7522 0 9.48409 1.72941 8.63002 4.12494H7.89564C3.54099 4.12494 0 7.66593 0 12.0206C0 14.0973 0.841887 16.1314 2.31219 17.6038L15.2914 30.5831C16.8263 32.1199 18.9533 33.0001 21.1245 33.0001H26.8126V40.956C26.8126 46.787 30.1602 51.7942 35.546 54.026C40.9278 56.2515 46.8374 55.0854 50.9583 50.9583C54.4428 47.4719 58.8901 47.5463 61.875 48.785C64.868 50.0236 68.0625 53.1073 68.0625 58.044V65.9999H62.3745C60.2032 65.9999 58.0763 66.8801 56.5414 68.4169L43.5621 81.3981C42.0918 82.8684 41.2499 84.9027 41.2499 86.9794C41.2499 91.3341 44.7909 94.8749 49.1454 94.8749H49.8798C50.7342 97.2706 53.0021 99 55.6875 99H84.5624C87.2478 99 89.5157 97.2706 90.37 94.8751H91.1044C95.459 94.8751 98.9998 91.3341 98.9998 86.9796C99 84.9029 98.1581 82.8686 96.6878 81.3962ZM14.4376 4.12494H43.3125C44.4485 4.12494 45.3751 5.04939 45.3751 6.1875C45.3751 7.32561 44.4485 8.25006 43.3125 8.25006H14.4376C13.3016 8.25006 12.375 7.32542 12.375 6.1875C12.375 5.04958 13.3016 4.12494 14.4376 4.12494ZM21.1245 28.8749C20.0409 28.8749 18.9775 28.4339 18.2081 27.6664L5.22882 14.6893C4.5279 13.9843 4.12513 13.0115 4.12513 12.0206C4.12513 9.94196 5.81702 8.25006 7.89564 8.25006H8.63002C9.48409 10.6456 11.7522 12.375 14.4376 12.375H43.3125C45.9979 12.375 48.2658 10.6456 49.1201 8.25006H49.8544C51.933 8.25006 53.6249 9.94196 53.6249 12.0206C53.6249 13.0115 53.2222 13.9843 52.5212 14.6874L39.542 27.6664C38.7726 28.4339 37.7091 28.8749 36.6256 28.8749H21.1245ZM84.5624 94.8751H55.6875C54.5515 94.8751 53.6249 93.9506 53.6249 92.8125C53.6249 91.6746 54.5515 90.7499 55.6875 90.7499H84.5624C85.6984 90.7499 86.625 91.6744 86.625 92.8125C86.625 93.9504 85.6984 94.8751 84.5624 94.8751ZM91.1046 90.7499H90.3702C89.5159 88.3544 87.2478 86.625 84.5624 86.625H55.6875C53.0021 86.625 50.7342 88.3544 49.88 90.7499H49.1456C47.067 90.7499 45.3751 89.058 45.3751 86.9794C45.3751 85.9885 45.7778 85.0157 46.4788 84.3126L59.458 71.3334C60.2274 70.5659 61.2909 70.1249 62.3745 70.1249H77.8755C78.9591 70.1249 80.0226 70.5659 80.7919 71.3334L93.7712 84.3107C94.4721 85.0157 94.8749 85.9885 94.8749 86.9794C94.8751 89.058 93.1832 90.7499 91.1046 90.7499Z" fill="#87AD3B"/>
</svg>
<?xml-stylesheet type="text/css" href="./css/style.min.css"?>

<?xml-stylesheet type="text/css" href="/css/style.min.css"?><svg viewBox="0 0 99 99" xmlns="http://www.w3.org/2000/svg"><path d="M96.688 81.396l-12.98-12.98A8.301 8.301 0 0077.877 66h-5.689v-7.956c0-5.831-3.347-10.838-8.733-13.07-5.378-2.23-11.287-1.06-15.412 3.068-3.485 3.486-7.932 3.414-10.917 2.173-2.993-1.239-6.188-4.322-6.188-9.259V33h5.689c2.17 0 4.298-.88 5.833-2.417l12.979-12.981a7.947 7.947 0 002.312-5.581c0-4.355-3.54-7.896-7.895-7.896h-.735C48.266 1.73 45.998 0 43.313 0H14.438C11.752 0 9.484 1.73 8.63 4.125h-.734C3.54 4.125 0 7.665 0 12.02c0 2.076.842 4.11 2.312 5.583l12.98 12.98A8.301 8.301 0 0021.124 33h5.688v7.956c0 5.831 3.347 10.838 8.733 13.07 5.382 2.225 11.291 1.06 15.412-3.068 3.485-3.486 7.932-3.412 10.917-2.173 2.993 1.239 6.188 4.322 6.188 9.259V66h-5.689c-2.17 0-4.298.88-5.833 2.417L43.562 81.398a7.947 7.947 0 00-2.312 5.581c0 4.355 3.54 7.896 7.895 7.896h.735C50.734 97.27 53.002 99 55.687 99h28.875c2.686 0 4.954-1.73 5.808-4.125h.734c4.355 0 7.896-3.54 7.896-7.895a7.955 7.955 0 00-2.312-5.584zM14.438 4.125h28.874c1.137 0 2.063.924 2.063 2.063a2.065 2.065 0 01-2.063 2.062H14.439a2.065 2.065 0 01-2.063-2.063c0-1.137.927-2.062 2.063-2.062zm6.687 24.75a4.161 4.161 0 01-2.917-1.209L5.228 14.69a3.814 3.814 0 01-1.103-2.668 3.775 3.775 0 013.77-3.77h.735c.854 2.395 3.122 4.124 5.808 4.124h28.874c2.686 0 4.954-1.73 5.808-4.125h.734a3.775 3.775 0 013.77 3.77c0 .992-.402 1.964-1.103 2.667l-12.979 12.98a4.161 4.161 0 01-2.916 1.208H21.125zm63.437 66H55.688a2.065 2.065 0 01-2.063-2.063c0-1.137.926-2.062 2.063-2.062h28.874c1.136 0 2.063.924 2.063 2.063a2.065 2.065 0 01-2.063 2.062zm6.543-4.125h-.735c-.854-2.396-3.122-4.125-5.808-4.125H55.688c-2.686 0-4.954 1.73-5.808 4.125h-.734a3.775 3.775 0 01-3.77-3.77c0-.992.402-1.964 1.103-2.667l12.979-12.98a4.161 4.161 0 012.916-1.208h15.502c1.083 0 2.147.44 2.916 1.208l12.98 12.978a3.815 3.815 0 011.103 2.668 3.775 3.775 0 01-3.77 3.77z" fill="#87AD3B"/></svg>
